#define sonicr_invert_width 48
#define sonicr_invert_height 32
static unsigned char sonicr_invert_bits[] = {
   0x0a, 0x2a, 0xa8, 0xa0, 0x82, 0x0a, 0xc5, 0x9f, 0xdf, 0xef, 0x9f, 0x1f,
   0x6a, 0xf0, 0xf0, 0x38, 0xf1, 0x10, 0x30, 0x30, 0x60, 0x30, 0x31, 0x50,
   0x10, 0x3e, 0x40, 0x30, 0x31, 0xb0, 0x10, 0x1e, 0x46, 0x20, 0x11, 0x5e,
   0x10, 0x10, 0x4f, 0x00, 0x11, 0xaf, 0x30, 0x10, 0x47, 0x00, 0x11, 0x5f,
   0xea, 0x11, 0x42, 0x04, 0x11, 0x12, 0x25, 0x30, 0x60, 0x0c, 0x31, 0x10,
   0x3a, 0x78, 0x70, 0x0c, 0x71, 0x10, 0xf5, 0xdf, 0xdf, 0xf7, 0xdf, 0x1f,
   0x0a, 0x2a, 0xa8, 0xa0, 0x82, 0x0a, 0x50, 0xf1, 0xff, 0x7f, 0x54, 0x50,
   0xa0, 0x08, 0x00, 0x80, 0x29, 0xa0, 0x50, 0xe9, 0xff, 0x3f, 0x56, 0x50,
   0xa0, 0xc8, 0xff, 0xff, 0x2c, 0xa0, 0x50, 0x91, 0xff, 0xff, 0x59, 0x50,
   0x0a, 0x2a, 0xff, 0xff, 0x8b, 0x0a, 0x05, 0x14, 0x7e, 0xf8, 0x0b, 0x05,
   0x0a, 0xca, 0x7f, 0xf8, 0x8b, 0x0a, 0x05, 0x94, 0x7f, 0xff, 0x09, 0x05,
   0x0a, 0x2a, 0x7f, 0xff, 0x84, 0x0a, 0x50, 0x41, 0x7e, 0x7f, 0x56, 0x50,
   0xa0, 0x80, 0x7c, 0xff, 0x2a, 0xa0, 0x50, 0x41, 0x7d, 0xfe, 0x54, 0x50,
   0xa0, 0x80, 0x7d, 0xfc, 0x2d, 0xa0, 0x50, 0x41, 0x7d, 0xf9, 0x59, 0x50,
   0x0a, 0x2a, 0x7d, 0xf3, 0x8b, 0x0a, 0x05, 0x14, 0x01, 0x07, 0x08, 0x05,
   0x0a, 0x2a, 0xff, 0xf8, 0x87, 0x0a, 0x05, 0x14, 0x50, 0x40, 0x01, 0x05 };
